X:1
T:Cortège
T:Cortège
T:Lili BOULANGER
T:No. 3 from “Trois Morceau pour Piano”
T:à Yvonne Astruc
C:Lili BOULANGER
%%score { ( 1 2 5 ) | ( 3 4 6 ) }
L:1/8
Q:1/4=108
M:2/4
K:B
V:1 treble nm="Piano"
V:2 treble 
V:5 treble 
V:3 bass 
V:4 bass 
V:6 bass 
V:1
"^Pas vite"!mf! !>!B4- |!>(! B4!>)! |"^léger et gai"!mp! (d>e f/g/f/e/ | %3
 d/e/d/c/)[Q:1/4=102]"^céder" (.B"^*"!breath!.G) |[Q:1/4=108]"^a tempo"!<(! !>!B4-!<)! | %5
!<(! B2!<)!!>(! z2!>)! |!p! (d>e!<(! f/g/f/e/ | %7
 d/e/d/c/)!<)![Q:1/4=100] (!tenuto!B!breath!!tenuto!G) |[Q:1/4=112]"^accel."!mf!!<(! !>!c4-!<)! | %9
!>(! c2 z2!>)! |!mf! (c>d e/f/e/d/ | c/B/=A/!>(!G/) (.F"^*".E)!>)! |[Q:1/4=108]!p!"^a tempo" F4- | %13
 F2 z2 |!p! (d>e f/g/f/e/ | d/e/d/c/) (.B.G) | !>!B4- | B2 z2 | %18
!<(! (d>e[Q:1/4=110]"^accel." f/g/=a/b/) |[Q:1/4=112] (c'/b/!<)!=a) (b2 | =a) z!>(! (!tenuto!g2 | %21
 f/e/=d)[Q:1/4=100]"^rit." c2-[Q:1/4=90]!>)! | %22
[Q:1/4=108]"^a tempo"!pp! c/z/C!<(! !tenuto!=D z!<)! | %23
!>(! !tenuto!=Ez!>)![Q:1/4=100]"^rit."!tenuto!=D[Q:1/4=90] z | %24
[Q:1/4=108]"^a tempo"!p! (^A>B c/d/c/B/ | A/B/A/G/) .F.=D |!<(! !>!F4-!<)! |!<(! F4!<)! | %28
"^presser un peu"!<(! (A>B c/d/e/d/ | c/B/=A/G/!<)!!>(! F/E/D/=D/!>)! |[K:bass] C4-) | C4 | %32
[K:treble]!f! z!<(! !arpeggio![Gcg][Q:1/4=110]"_serrez"z[Q:1/4=112]!arpeggio![=A=d=a]!<)! | %33
[Q:1/4=114] z[Q:1/4=116] !arpeggio![Beb]!ff![=A=d=a][Q:1/4=108] z | z4 | %35
 [G,G]/!p!"^move p from first note"(G/^e/c'/)!<(! z/ (=A/f/!<)!=d'/) | %36
!mp! z/ (B/g/e'/)!>(! z/ (c/=a/!>)!f'/) |!p! z/ (G/^e/c'/) z/!<(! (=A/f/=d'/)!<)! | %38
 z/!>(! (B/g/e'/)!>)! z/ (c/=a/f'/) |!mf! z/ (=G/=d/b/)!<(! z/ (=A/e/c'/)!<)! | %40
 z/ (B/=g/=d'/) z/ (=d/=a/f'/) |!f! ([F,G,=DF]>G[Q:1/4=112]"^accel."!<(! [E_B]/=c/A/=A/) | %42
 ([^G,E^G]>^A[Q:1/4=114] [=D_A=c]/=d/c/_B/)!<)! | %43
!ff! (^G/"_dim."^A/=c/=d/[Q:1/4=116]!f!!>(! e/f/g/a/!>)! | %44
[Q:1/4=118]!p!!>(!!8va(! =c'/"^rit."=d'/[Q:1/4=112]e'/f'/[Q:1/4=110] g'/a'/[Q:1/4=104]=c''/=d''/)!>)! | %45
[Q:1/4=108]!pp!"^a tempo" ([^d'b'^d''f'']>!8va)!e' f'/g'/f'/e'/ | d'/e'/d'/c'/) (.b.g) | %47
 !>![Bb]4- | [Bb]4 | (d'>e' f'/g'/f'/e'/ | d'/e'/d'/c'/) (.b.g) |!p! [cc']4- | [cc']4 | %53
 (c'>d' e'/f'/e'/d'/ | c'/b/=a/g/) (.f.e) |!mp! z !>![Bb]3- | [Bb]4 | (d>e f/g/f/e/ | %58
 d/e/d/c/) (.B.G) |!mf! [B,E=GB]>(c'!>(! b/=g/e/_d/ | %60
 B/=G/E/C/!>)! B,/!tenuto!=G,/!tenuto!F,/!tenuto!E,/) | %61
"^Plus vite et en pressant jusqu'a la fin"!p![Q:1/4=110][I:staff +1]{/D,F,}[I:staff -1] (d>"_cresc."e f/g/f/e/ | %62
 d/=e/d/c/) (.B.G) |!mp!"_cresc."!<(! B4- | B4!<)! |[Q:1/4=112]!f! (!>!d>e) (f/g/f/d/) | %66
 (!>!e>"_cresc."f) (g/.a/).g/.^e/ |!<(! (!>!b/c'/b/g/) (!>!=d'/e'/d'/b/) | %68
!8va(! (!>!=f'/=g'/f'/=d'/) (!>!^g'/^a'/g'/^e'/)!<)! | %69
!ff! !>![f'g'b'^d''f'']3/2!8va)!!mf! (g'/ f'/d'/b/g/ |!>(! f/d/B/G/ F/D/!>)![I:staff +1]B,/G,/ | %71
 .F,)[I:staff -1] z!ff![Q:1/4=118] .[B,DFB] z |!<(! .[=CE=A=c]z.[E_Bce] z!<)! | %73
!fff! !arpeggio!.[^F=B^d^f]z/!mf![Q:1/4=114](g/ f/d/B/G/ | F/D/[I:staff +1]B,/G,/ F,/D,/B,,/G,,/ | %75
 .F,,)[I:staff -1] z!ff![Q:1/4=118] .[E_B=ce] z | .[F^Bdf]z.[G=Beg] z | %77
!fff! .[Bcfgb] z/!pp![Q:1/4=108] (C/!<(! D/F/G/B/ | c/d/f/g/ b/c'/d'/f'/!<)! | %79
!mp!!8va(! [d'b']/) z/!8va)! z z2 |!pp! !arpeggio![Bdfb] z z2 |!pp! [B,DFB]4- | [B,DFB] z z2 |] %83
V:2
 .B,z.B, z | .B,z.B, z | x4 | x4 | z2!>(! .B, z!>)! | .B,z.B, z | x4 | x4 | z2!p! .C z | .Cz.C z | %10
 x4 | x4 | z2 .B, z | .B,z.B, z | x4 | x4 | z2"^add staccato" .B, z | .B,z.B, z | x4 | x3 (g | %20
 =a/g/f) z (e | f) z z =G | F4- | !tenuto!F2 x2 | x4 | x4 | !tenuto!Cz!>(!!tenuto!=D z!>)! | %27
 !tenuto!Cz!>(!!tenuto!E z!>)! | x4 | x4 |[K:bass] z!mf! !tenuto!G,!<(!!tenuto!=A, z | %31
 !tenuto!B,z!tenuto!=A,!<)! z |[K:treble] !>!C4- | C4 | x4 | x4 | x4 | x4 | x4 | x4 | x4 | x4 | %42
 x4 | E z z2 |!8va(! x4 | x3/2!8va)! x5/2 | x4 | z .[df]z.[dg] | z .[df]z.[dg] | x4 | x4 | %51
 z .[e=a]z.[fa] | z .[e=a]z.[fa] | x4 | x4 | x2 z .[dg] | x .[df]z.[dg] | x4 | x4 | x4 | x4 | x4 | %62
 x4 | z !tenuto!E/ z/ z !tenuto!^E/ z/ | z !tenuto!F/ z/ z !tenuto!^^F/ z/ | x4 | x4 | x4 | %68
!8va(! x4 | x3/2!8va)! x5/2 | x4 | x4 | x4 | x4 | x4 | x4 | x4 | x4 | x4 |!8va(! x!8va)! x3 | x4 | %81
 x4 | x4 |] %83
V:3
!pp! z/ (B,,/F,/D/) z/ (G,,/D,/B,/) | z/ (B,,/F,/D/) z/ (G,,/D,/B,/) | %2
 z/!pp! (B,,/F,/D/) z/ (G,,/D,/B,/) | z/ (B,,/F,/D/) z/ (G,,/D,/B,/) | %4
 z/ (B,,/F,/D/) z/ (G,,/D,/B,/) | z/ (B,,/F,/D/) z/ (G,,/D,/B,/) | z/ (B,,/F,/D/) z/ (G,,/D,/B,/) | %7
 z/ (B,,/F,/D/) z/ (G,,/D,/B,/) |!p! z/ (F,,/C,/=A,/) z/ (=A,,/E,/C/) | %9
 z/ (F,,/C,/=A,/) z/ (=A,,/E,/C/) | z/ (F,,/C,/=A,/) z/ (G,,/D,/B,/) | %11
 z/ (((=A,,/E,/C/))) z/ (C,/G,/E/) | z/ (B,,/F,/D/) z/ (G,,/D,/B,/) | %13
"_*  Faire désirez le temps suivant." z/ (B,,/F,/D/) z/ (G,,/D,/B,/) | %14
 z/ (B,,/F,/D/) z/ (G,,/D,/B,/) | z/ (B,,/F,/D/) z/ (G,,/D,/B,/) | %16
 z/ ((B,,/F,/D/)) z/ ((G,,/D,/B,/)) | z/ (B,,/F,/D/) z/ (G,,/D,/B,/) | %18
 z/ (B,,/F,/D/) z/ (F,,/C,/=A,/) | z/ (=A,,/E,/C/) z/ (C,/G,/E/) | %20
 z/ (=D,/=A,/F/) z/ (=A,,/E,/C/) | z/ (B,,/F,/=D/) z/ (C,/B,/^E/) | %22
 z/ (F,,/C,/^A,/) z/ (=G,,/=D,/B,/) | z/ (=A,,/E,/C/) z/ (C,/B,/^E/) | %24
 z/ (F,,/C,/A,/) z/ (A,,/^E,/C/) | z/ (D,,/A,,/F,/) z/ (=D,,/=A,,/F,/) | %26
 z/ (F,,/C,/^A,/) z/ (=E,,/B,,/G,/) | z/ (F,,/C,/A,/) z/ (=C,,/_B,,/=G,/) | %28
 z/ (F,,/C,/A,/) z/ (C,,/=A,,/E,/) | z/ (D,,/B,,/F,/) z/ (G,,/F,/^B,/) | %30
 z/ (C,,/G,,/^E,/) z/ (B,,,/F,,/=E,/) | z/ (=A,,,/E,,/C,/) z/ (B,,,/F,,/=D,/) | %32
!mf! (!>!C,,/G,,/^E,/) z/ (!>!=D,,/=A,,/F,/) z/ | %33
 (!>!E,,/B,,/G,/) z/!ped! !arpeggio![G,,F,^B,]!ped-up! z | z2!f![I:staff -1] (!>!=D2 | %35
!f![I:staff +1] C>)C (B,/.C/).=A,/.B,/ | !tenuto!C!tenuto!C !>!G,2 | %37
 !tenuto!C>!tenuto!C (B,/.C/).=A,/.B,/ |!mp! !tenuto!C!tenuto!C!p! !>!G,2 | %39
 !tenuto!B,>!tenuto!B, (=A,/.B,/).=G,/.A,/ | !tenuto!B,!tenuto!B, !>!F,2 | %41
 z/ (E,,/B,,/G,/) (=C,,/=G,,/E,/) z/ | z/ (F,,/E,/^A,/) (_B,,/_A,/=D/) z/ | %43
!ped! (^C,/^F,/^A,/E/[K:treble] G/A/e/f/ | g) z z2!ped-up! | %45
[K:bass] z/ (B,,/F,/D/) z/ (G,,/D,/B,/) | z/ (B,,/F,/D/) z/ (G,,/D,/B,/) | %47
 z/ (B,,/F,/D/) (G,,/D,/B,/) z/ | (B,,/F,/D/) z/ (G,,/D,/B,/) z/ | z/ (B,,/F,/D/) z/ (G,,/D,/B,/) | %50
 z/ (B,,/F,/D/) z/ (G,,/D,/B,/) | z/ (F,,/C,/=A,/) (=A,,/E,/C/) z/ | %52
 (F,,/C,/=A,/) z/ (=A,,/E,/C/) z/ | ((F,,/C,/=A,/)) z/ ((G,,/D,/B,/)) z/ | %54
 z/ (((=A,,/E,/C/))) z/ (C,/F,/E/) | z/ (B,,/F,/D/) (G,,/D,/B,/) z/ | %56
 (B,,/F,/D/) z/ (G,,/D,/B,/) z/ | (B,,/F,/D/) z/ (^A,,/F,/D/) z/ | (=A,,/F,/D/) z/ (G,,/F,/D/) z/ | %59
 (=G,,/E,/C/) z/ (E,,/B,,/=G,/) z/ | (=G,,/E,/B,/) z/ (E,,/B,,/=G,/) z/ | %61
 ([F,,,F,,]/F,/B,/) z/ (F,,/E,/=C/) z/ | (F,,/^E,/C/) z/ (F,,/F,/=D/) z/ | %63
 (F,,/=G,/) z (F,,/^G,/) z | (F,,/=A,/) z (F,,/^A,/) z | %65
 (F,,/B,/[I:staff -1]!tenuto!G/)[I:staff +1] z/ (F,,/[I:staff -1]^B,/!tenuto!^^G/)[I:staff +1] z/ | %66
 (F,,/C/[I:staff -1]!tenuto!A/)[I:staff +1] z/[K:treble] F,/(!tenuto!=D/B/) z/ | %67
 z/ (!tenuto!^E/=d/) z/ z/ (!tenuto!G/^e/) z/ | z/ (!tenuto!B/g/) z/ z/ (!tenuto!=d/b/) z/ | %69
[K:treble]!ped! [fgb^d']3/2 z/ z2!ped-up! | x4[K:bass] | z2"^vite" .[B,,F,] z | %72
 .[=A,,E,=A,]z.[=G,,=C,E,_B,] z | [^F,,^D,=B,]2- [F,,D,B,] z |!>(! x2 x2!>)! | z2 .[=C,=G,_B,] z | %76
 !arpeggio!.[^G,,D,F,^B,]z!arpeggio!.[F,,C,E,=B,] z | .[B,,,F,,D,] z/ (G,/ B,/C/D/F/ | %78
[K:treble] G/B/c/d/ f/g/b/c'/) | z2[K:bass] .F, z |[K:treble] [FG] z[K:bass] .F,,2 | %81
 !arpeggio![B,,,F,,D,]4 |!8vb(! B,,,, z"_(Rome 1914)" z2!8vb)! |] %83
V:4
 x4 | x4 | x4 | x4 | x4 | x4 | x4 | x4 | x4 | x4 | x4 | x4 | x4 | x4 | x4 | x4 | x4 | x4 | x4 | %19
 x4 | x4 | x4 | x4 | x4 | x4 | x4 | x4 | x4 | x4 | x4 | x4 | x4 | x4 | x4 | x4 | %35
 !arpeggio![C,,G,,^E,]/ x/ x x2 | x4 | x4 | x4 | x4 | x4 | x4 | x4 | x2[K:treble] x2 | x4 | %45
[K:bass] x4 | x4 | x4 | x4 | x4 | x4 | x4 | x4 | x4 | x4 | x4 | x4 | x4 | x4 | x4 | x4 | x4 | x4 | %63
 x4 | x4 | x4 | x2[K:treble] x2 | x4 | x4 |[K:treble] x4 | z2 z[K:bass] x | x4 | x4 | x4 | x4 | %75
 x4 | x/16-x/16-x/16-x/16-.xx3/4x/16-x/16-x/16-x/16-.x x3/4 | x4 |[K:treble] x4 | x2[K:bass] x2 | %80
[K:treble] x2[K:bass] x2 | x4 |!8vb(! x4!8vb)! |] %83
V:5
 x4 | x4 | x4 | x4 | x4 | x4 | x4 | x4 | x4 | x4 | x4 | x4 | x4 | x4 | x4 | x4 | x4 | x4 | x4 | %19
 x4 | x4 | x4 | x4 | x4 | x4 | x4 | x4 | x4 | x4 | x4 |[K:bass] x4 | x4 |[K:treble] x4 | x4 | x4 | %35
 x4 | x4 | x4 | x4 | x4 | x4 | x4 | x4 | x4 |!8va(! x4 | x3/2!8va)! x5/2 | x4 | x4 | x4 | x4 | x4 | %51
 x4 | x4 | x4 | x4 | f4 | x4 | x4 | x4 | x4 | x4 | x4 | x4 | x4 | x4 | x4 | x4 | x4 |!8va(! x4 | %69
 x3/2!8va)! x5/2 | x4 | x4 | x4 | x4 | x4 | x4 | x4 | x4 | x4 |!8va(! x!8va)! x3 | x4 | x4 | x4 |] %83
V:6
 x4 | x4 | x4 | x4 | x4 | x4 | x4 | x4 | x4 | x4 | x4 | x4 | x4 | x4 | x4 | x4 | x4 | x4 | x4 | %19
 x4 | x4 | x4 | x4 | x4 | x4 | x4 | x4 | x4 | x4 | x4 | x4 | x4 | x4 | x4 | x4 | x4 | x4 | x4 | %38
 x4 | x4 | x4 | x4 | x4 | x2[K:treble] x2 | x4 |[K:bass] x4 | x4 | x4 | x4 | x4 | x4 | x4 | x4 | %53
 x4 | x4 | x4 | x4 | x4 | x4 | x4 | x4 | x4 | x4 | x4 | x4 | x4 | x2[K:treble] x2 | x4 | x4 | %69
[K:treble] !arpeggio!x3/2 x5/2 | x3[K:bass] x | x4 | x4 | !arpeggio!x- x2 x | x4 | x4 | x4 | x4 | %78
[K:treble] x4 | x2[K:bass] x2 |[K:treble] !arpeggio!x x[K:bass] x2 | x4 |!8vb(! x4!8vb)! |] %83

